public/assets/images/field-d08.svg

<svg width="18" height="18" viewBox="0 0 18 18" fill="none" xmlns="http://www.w3.org/2000/svg">
<circle cx="8.5" cy="8.5" r="8" stroke="#4F66EE"/>
<path d="M9.06946 4.92775C9.39187 4.9738 9.67809 5.06263 9.92812 5.19423C10.1782 5.32582 10.3887 5.47716 10.5598 5.64823C10.7309 5.8193 10.8624 5.99696 10.9546 6.18119C11.0467 6.36543 11.096 6.52992 11.1026 6.67467C11.1092 6.73389 11.0894 6.78653 11.0434 6.83259C10.9973 6.87207 10.9447 6.89181 10.8855 6.89181H10.4808C10.4084 6.89181 10.3492 6.87864 10.3032 6.85233C10.2637 6.82601 10.2209 6.76679 10.1749 6.67467C10.142 6.60888 10.086 6.52663 10.0071 6.42793C9.9347 6.32266 9.83271 6.22396 9.70112 6.13184C9.5761 6.03315 9.42148 5.9509 9.23724 5.8851C9.05301 5.81272 8.83917 5.77654 8.59572 5.77654C8.41148 5.77654 8.23383 5.79957 8.06276 5.84562C7.89826 5.8851 7.75022 5.94761 7.61862 6.03315C7.48703 6.11868 7.38175 6.22725 7.30279 6.35884C7.22384 6.48386 7.18436 6.6319 7.18436 6.80298C7.18436 6.97405 7.22055 7.11881 7.29292 7.23724C7.37188 7.35568 7.49361 7.46424 7.6581 7.56294C7.82917 7.65506 8.04302 7.74059 8.29963 7.81955C8.55624 7.89851 8.86878 7.98734 9.23724 8.08603C9.61229 8.18473 9.92812 8.2933 10.1847 8.41173C10.4479 8.53017 10.6618 8.66505 10.8263 8.81639C10.9908 8.96114 11.1092 9.13222 11.1816 9.32961C11.2605 9.52042 11.3 9.73755 11.3 9.98101C11.3 10.2508 11.2474 10.5008 11.1421 10.7311C11.0368 10.9614 10.8855 11.1621 10.6881 11.3331C10.4973 11.5042 10.2637 11.6457 9.98734 11.7575C9.71099 11.8694 9.40503 11.9418 9.06946 11.9747V12.6162C9.06946 12.6886 9.04314 12.7511 8.9905 12.8037C8.93786 12.8564 8.87536 12.8827 8.80298 12.8827H8.39832C8.32595 12.8827 8.26344 12.8564 8.2108 12.8037C8.15816 12.7511 8.13184 12.6886 8.13184 12.6162V11.9549C7.81602 11.9089 7.5298 11.8233 7.27318 11.6983C7.01657 11.5733 6.79286 11.4286 6.60205 11.2641C6.41782 11.0996 6.27306 10.9219 6.16778 10.7311C6.06251 10.5337 6.00658 10.3429 6 10.1587C6 10.0994 6.01974 10.0501 6.05922 10.0106C6.10528 9.96456 6.15791 9.94153 6.21713 9.94153H6.62179C6.68759 9.94153 6.74351 9.95469 6.78957 9.98101C6.84221 10.0073 6.88827 10.0665 6.92775 10.1587C6.96723 10.2508 7.02644 10.3528 7.1054 10.4646C7.19094 10.5699 7.30279 10.6719 7.44097 10.7706C7.57914 10.8627 7.74693 10.9417 7.94432 11.0074C8.14171 11.0732 8.37529 11.1061 8.64507 11.1061C8.87536 11.1061 9.09249 11.0798 9.29646 11.0272C9.50701 10.9745 9.69125 10.8989 9.84916 10.8002C10.0071 10.7015 10.1321 10.5831 10.2242 10.4449C10.3163 10.3067 10.3624 10.1521 10.3624 9.98101C10.3624 9.80993 10.3097 9.66518 10.2045 9.54674C10.0992 9.42173 9.94786 9.30987 9.75047 9.21117C9.55307 9.11248 9.30962 9.02365 9.02011 8.94469C8.73718 8.85916 8.41477 8.77033 8.05289 8.67821C7.7239 8.59268 7.44426 8.49069 7.21397 8.37225C6.98367 8.24724 6.79615 8.10577 6.6514 7.94786C6.50664 7.78994 6.40137 7.61558 6.33557 7.42477C6.27635 7.23395 6.24674 7.02669 6.24674 6.80298C6.24674 6.58585 6.28622 6.372 6.36518 6.16145C6.44413 5.9509 6.55928 5.76009 6.71061 5.58901C6.86853 5.41794 7.06592 5.27318 7.30279 5.15475C7.53966 5.03631 7.81602 4.95735 8.13184 4.91788V4.26648C8.13184 4.1941 8.15816 4.13159 8.2108 4.07896C8.26344 4.02632 8.32595 4 8.39832 4H8.80298C8.87536 4 8.93786 4.02632 8.9905 4.07896C9.04314 4.13159 9.06946 4.1941 9.06946 4.26648V4.92775Z" fill="#4F66EE"/>
</svg>

<svg width="18" height="18" fill="none" xmlns="http://www.w3.org/2000/svg"><circle cx="8.5" cy="8.5" r="8" stroke="#4F66EE"/><path d="M9.07 4.928a2.628 2.628 0 011.49.72c.17.171.302.349.395.533.092.184.141.349.148.494a.186.186 0 01-.06.158.236.236 0 01-.157.059h-.405a.355.355 0 01-.178-.04.47.47 0 01-.128-.177 1.496 1.496 0 00-.168-.247 1.2 1.2 0 00-.306-.296 1.625 1.625 0 00-.464-.247 1.747 1.747 0 00-.641-.108c-.185 0-.362.023-.533.069-.165.04-.313.102-.444.187a.995.995 0 00-.316.326.814.814 0 00-.119.444c0 .171.037.316.109.434.079.119.2.227.365.326.171.092.385.178.642.257.256.079.569.167.937.266.375.099.691.207.948.326.263.118.477.253.641.404.165.145.283.316.356.514.079.19.118.408.118.651a1.755 1.755 0 01-.612 1.352c-.19.171-.424.313-.7.425a3.29 3.29 0 01-.919.217v.641a.256.256 0 01-.079.188.256.256 0 01-.187.079h-.405a.256.256 0 01-.187-.08.256.256 0 01-.08-.187v-.661a2.905 2.905 0 01-.858-.257 3.1 3.1 0 01-.67-.434 2.037 2.037 0 01-.435-.533A1.317 1.317 0 016 10.16a.2.2 0 01.06-.148.217.217 0 01.157-.07h.405c.066 0 .122.014.168.04.052.026.098.085.138.178.04.092.098.194.177.306.086.105.198.207.336.306a2.103 2.103 0 001.204.335 2.6 2.6 0 00.651-.079c.211-.052.395-.128.553-.227.158-.099.283-.217.375-.355a.818.818 0 00.138-.464.63.63 0 00-.158-.434 1.406 1.406 0 00-.454-.336 4.007 4.007 0 00-.73-.266 22.878 22.878 0 00-.967-.267 4.099 4.099 0 01-.839-.306 2.137 2.137 0 01-.563-.424 1.487 1.487 0 01-.315-.523 2.088 2.088 0 01-.09-.622c0-.217.04-.431.12-.642.078-.21.193-.4.345-.572.158-.171.355-.316.592-.434.237-.119.513-.198.829-.237v-.652c0-.072.026-.134.079-.187A.256.256 0 018.398 4h.405c.072 0 .135.026.188.079a.256.256 0 01.078.187v.662z" fill="#4F66EE"/></svg>
